packages/core/src/svgs/geeq.svg

<svg width="24" height="24" viewBox="0 0 24 24" fill="none" xmlns="http://www.w3.org/2000/svg">
<g clip-path="url(#clip0_31_10702)">
<path d="M0 0H24V24H0V0Z" fill="#254280"/>
<path d="M12.4287 5.57129H11.5715V8.57129H12.4287V5.57129ZM12.4287 15.4284H11.5715V18.4284H12.4287V15.4284Z" fill="white"/>
<path d="M12 18.8574C15.7873 18.8574 18.8571 15.7875 18.8571 12.0002C18.8591 10.7338 18.5087 9.49179 17.8453 8.41307L17.2007 9.00664C17.7258 9.9168 18.0015 10.9494 18 12.0002C18 15.3139 15.3137 18.0002 12 18.0002C8.68625 18.0002 5.99997 15.3139 5.99997 12.0002C5.99997 8.6865 8.68625 6.00021 12 6.00021C13.9127 6.00021 15.6162 6.89507 16.7147 8.28878L17.3468 7.70678C16.7049 6.90587 15.891 6.2596 14.9654 5.81582C14.0399 5.37204 13.0264 5.14212 12 5.14307C8.21268 5.14307 5.14282 8.21293 5.14282 12.0002C5.14282 15.7875 8.21268 18.8574 12 18.8574Z" fill="white"/>
<path d="M16.877 9.30443L16.2243 9.90528C16.5476 10.5562 16.7152 11.2734 16.7142 12.0001C16.7142 14.6037 14.6035 16.7144 11.9999 16.7144C9.39632 16.7144 7.28561 14.6037 7.28561 12.0001C7.28561 9.39657 9.39632 7.28586 11.9999 7.28586C13.5385 7.28586 14.9048 8.023 15.7653 9.163L16.3983 8.58014C15.8779 7.90972 15.211 7.36729 14.4486 6.99438C13.6862 6.62147 12.8486 6.42798 11.9999 6.42871C8.92275 6.42871 6.42847 8.923 6.42847 12.0001C6.42847 15.0773 8.92275 17.5716 11.9999 17.5716C15.077 17.5716 17.5713 15.0773 17.5713 12.0001C17.5713 11.0221 17.3193 10.1033 16.877 9.30443Z" fill="white"/>
<path d="M12.0001 8.14307C12.6119 8.14259 13.215 8.28783 13.7595 8.56679C14.304 8.84575 14.7742 9.25039 15.1313 9.74721L14.4944 10.3331C14.1153 9.76615 13.5542 9.34534 12.9039 9.14002C12.2535 8.93469 11.5526 8.9571 10.9166 9.20355C10.2807 9.45 9.74772 9.90578 9.40556 10.4958C9.0634 11.0857 8.93247 11.7747 9.03437 12.4491C9.13627 13.1234 9.46491 13.7429 9.96611 14.2055C10.4673 14.668 11.1112 14.946 11.7915 14.9935C12.4719 15.0411 13.1481 14.8554 13.7088 14.4671C14.2695 14.0788 14.6811 13.511 14.8758 12.8574H12.4287V12.0002H15.0001C15.0001 11.7036 14.9573 11.4174 14.8767 11.1465L15.5615 10.5165C15.88 11.2806 15.9441 12.1269 15.7445 12.9303C15.5449 13.7336 15.0922 14.4515 14.4531 14.9777C13.8141 15.5039 13.0228 15.8106 12.196 15.8524C11.3693 15.8942 10.551 15.669 9.86216 15.2099C9.17331 14.7508 8.65043 14.0823 8.37079 13.3032C8.09115 12.5241 8.06959 11.6756 8.3093 10.8833C8.549 10.091 9.03726 9.39676 9.7019 8.9033C10.3665 8.40984 11.1723 8.1433 12.0001 8.14307Z" fill="white"/>
</g>
<defs>
<clipPath id="clip0_31_10702">
<rect width="24" height="24" fill="white"/>
</clipPath>
</defs>
</svg>

<svg xmlns="http://www.w3.org/2000/svg" width="24" height="24" fill="none" viewBox="0 0 24 24"><g clip-path="url(#a)"><path fill="#254280" d="M0 0h24v24H0z"/><path fill="#fff" d="M12.429 5.571h-.857v3h.857zm0 9.857h-.857v3h.857z"/><path fill="#fff" d="M12 18.857a6.857 6.857 0 0 0 5.845-10.444l-.644.594a6 6 0 1 1-.486-.718l.632-.582A6.84 6.84 0 0 0 12 5.143a6.857 6.857 0 1 0 0 13.714"/><path fill="#fff" d="m16.877 9.304-.653.601a4.714 4.714 0 1 1-.459-.742l.633-.583A5.56 5.56 0 0 0 12 6.43a5.571 5.571 0 1 0 4.877 2.875"/><path fill="#fff" d="M12 8.143a3.85 3.85 0 0 1 3.131 1.604l-.637.586a3 3 0 1 0 .382 2.524h-2.447V12H15q-.002-.446-.123-.854l.684-.63a3.857 3.857 0 1 1-3.56-2.373"/></g><defs><clipPath id="a"><path fill="#fff" d="M0 0h24v24H0z"/></clipPath></defs></svg>
